public/img/top/tex-2.svg

<svg fill="none" height="136" viewBox="0 0 123 136" width="123" xmlns="http://www.w3.org/2000/svg" xmlns:xlink="http://www.w3.org/1999/xlink"><filter id="a" color-interpolation-filters="sRGB" filterUnits="userSpaceOnUse" height="132.35" width="117.565" x=".43457" y="3.12451"><feFlood flood-opacity="0" result="BackgroundImageFix"/><feColorMatrix in="SourceAlpha" result="hardAlpha" type="matrix" values="0 0 0 0 0 0 0 0 0 0 0 0 0 0 0 0 0 0 127 0"/><feOffset dx="-6" dy="7"/><feGaussianBlur stdDeviation="5.5"/><feColorMatrix type="matrix" values="0 0 0 0 0.316369 0 0 0 0 0.366988 0 0 0 0 0.353496 0 0 0 0.25741 0"/><feBlend in2="BackgroundImageFix" mode="normal" result="effect1_dropShadow_555_1176"/><feColorMatrix in="SourceAlpha" result="hardAlpha" type="matrix" values="0 0 0 0 0 0 0 0 0 0 0 0 0 0 0 0 0 0 127 0"/><feOffset dx="-3" dy="3"/><feGaussianBlur stdDeviation="2.5"/><feColorMatrix type="matrix" values="0 0 0 0 0 0 0 0 0 0 0 0 0 0 0 0 0 0 0.144615 0"/><feBlend in2="effect1_dropShadow_555_1176" mode="normal" result="effect2_dropShadow_555_1176"/><feBlend in="SourceGraphic" in2="effect2_dropShadow_555_1176" mode="normal" result="shape"/></filter><path clip-rule="evenodd" d="m60.7829 12.5259 47.7831 27.5875v55.1749l-47.7831 27.5877-47.7829-27.5877v-55.1749z" fill-rule="evenodd" stroke="#00e599" stroke-width=".648"/><g filter="url(#a)"><path d="m65.2175 7.12451 47.7825 27.58749v55.175l-47.7825 27.587-47.7829-27.587v-55.175z" fill="#000"/></g><path d="m65.2175 7.12451 47.7825 27.58749v55.175l-47.7825 27.587-47.7829-27.587v-55.175z" fill="#f0f5f6"/><g stroke="#003"><path clip-rule="evenodd" d="m85.529 71.5828v-18.6403c0-1.9325-1.0607-3.7091-2.762-4.6259l-17.8864-9.6384c-1.2774-.6883-2.871-.2108-3.5593 1.0666-.2064.383-.3145.8113-.3145 1.2464v20.118c0 .9628.5267 1.8485 1.3726 2.3083l19.2675 10.4737c1.2748.693 2.8701.2213 3.5631-1.0536.2094-.3851.319-.8165.319-1.2548z" fill="#fff" fill-rule="evenodd" stroke-width=".54"/><path d="m66.3848 53.3246 12.3311-.7806m-6.1656 5.4349c2.7861 1.5965 5.0446.6322 5.0446-2.1538s-2.2585-6.3388-5.0446-7.9354c-2.786-1.5965-5.0445-.6323-5.0445 2.1538 0 2.786 2.2585 6.3388 5.0445 7.9354z" stroke-width="1.3824"/><path clip-rule="evenodd" d="m78.9607 75.9617v-18.6403c0-1.9325-1.0608-3.7091-2.762-4.6259l-17.8865-9.6384c-1.2774-.6883-2.8709-.2108-3.5593 1.0666-.2064.383-.3144.8113-.3144 1.2464v20.118c0 .9628.5266 1.8485 1.3725 2.3083l19.2675 10.4737c1.2749.693 2.8702.2213 3.5632-1.0536.2093-.3851.319-.8165.319-1.2548z" fill="#fff" fill-rule="evenodd" stroke-width=".54"/></g><path d="m64.6971 63.8008v-2.2169c.3694.2072.7301.4009 1.0732.5851v2.208l1.3547.7274v-2.2432c2.2697 1.0955 3.8531 1.3739 4.0555-.6551.1583-1.6304-.651-2.8303-1.9354-3.8278.7742.0198 1.2668-.4195 1.1524-1.6509-.1495-1.6814-1.5306-2.9596-3.2725-4.0444v-2.2168l-1.3547-.7275v2.1553c-.3519-.1889-.7126-.3738-1.0732-.5587v-2.1728l-1.3548-.7274v2.2168c-.2903-.1471-.5806-.3029-.8533-.4494l-1.865-1.0102v1.4428c.2762.1433.4742.2475.6163.3232l.145.0779c.1814.0983.21.1182.2144.1222.555.2986.7309.7097.7837 1.0196v2.5247c.0352.0189.088.0473.1408.0844l-.1408-.0756v3.5364c-.0264.1618-.1319.3778-.5102.1747 0 0 .0054.0084-.1602-.0788l-.2-.107c-.1421-.0768-.3401-.1853-.6163-.3385l-.2727 1.4634 1.7594.9447c.3255.1748.6422.3536.9589.5237v2.2432zm.0263-8.1671v-2.7007c.7654.4109 3.1582 1.4582 3.1582 3.0505 0 1.5219-2.3928.0611-3.1582-.3498zm0 4.3281v-2.9734c.9149.4913 3.7828 1.776 3.7828 3.5178 0 1.6803-2.8679-.0531-3.7828-.5444z" fill="#003"/><path clip-rule="evenodd" d="m71.5164 81.2166v-18.6403c0-1.9326-1.0608-3.7091-2.7621-4.6259l-17.8864-9.6384c-1.2774-.6883-2.871-.2108-3.5593 1.0666-.2064.383-.3145.8113-.3145 1.2464v20.1179c0 .9629.5267 1.8486 1.3726 2.3084l19.2675 10.4737c1.2748.693 2.8701.2213 3.5631-1.0536.2094-.3851.3191-.8165.3191-1.2548z" fill="#fff" fill-rule="evenodd" stroke="#003" stroke-width=".54"/><path clip-rule="evenodd" d="m53.9866 70.0983c.0427.0069 2.2945-.8062 6.7555-2.439.4051-.1483.4281-.7692.0513-1.3869-.1895-.3106-.4553-.5763-.7335-.7332l-5.5968-3.157-1.5567.6742c-.1507.0652-.3947-.0727-.5449-.3082-.072-.1128-.1125-.2335-.1125-.3354v-1.9099c0-.8086.6555-1.0944 1.4641-.6383l1.8117 1.0219c.1981-.4063.7184-.6293 1.5609-.669.8424-.0396 1.7601.2263 2.753.7976 1.3429.7855 2.4619 1.8447 3.3571 3.1775s1.3331 2.6183 1.3137 3.8565v.013c0 1.0903-.4619 1.8689-1.2712 2.143l-6.4773 2.1933c-.5465-.2744-.9501-.5183-1.2108-.7318-.9314-.7629-1.5976-1.5737-1.5636-1.5683z" fill="#00e599" fill-rule="evenodd" stroke="#003" stroke-width=".54"/></svg>

<svg width="123" height="136" viewBox="0 0 123 136" fill="none" xmlns="http://www.w3.org/2000/svg">
<path fill-rule="evenodd" clip-rule="evenodd" d="M60.7829 12.5259L108.566 40.1134V95.2883L60.7829 122.876L13 95.2883V40.1134L60.7829 12.5259Z" stroke="#00E599" stroke-width="0.648"/>
<g filter="url(#filter0_dd_555_1176)">
<path d="M65.2175 7.12451L113 34.712V89.887L65.2175 117.474L17.4346 89.887V34.712L65.2175 7.12451Z" fill="black"/>
</g>
<path d="M65.2175 7.12451L113 34.712V89.887L65.2175 117.474L17.4346 89.887V34.712L65.2175 7.12451Z" fill="#F0F5F6"/>
<path fill-rule="evenodd" clip-rule="evenodd" d="M85.529 71.5828V52.9425C85.529 51.01 84.4683 49.2334 82.767 48.3166L64.8806 38.6782C63.6032 37.9899 62.0096 38.4674 61.3213 39.7448C61.1149 40.1278 61.0068 40.5561 61.0068 40.9912V61.1092C61.0068 62.072 61.5335 62.9577 62.3794 63.4175L81.6469 73.8912C82.9217 74.5842 84.517 74.1125 85.21 72.8376C85.4194 72.4525 85.529 72.0211 85.529 71.5828Z" fill="white" stroke="#000033" stroke-width="0.54"/>
<path d="M66.3848 53.3246L78.7159 52.544M72.5503 57.9789C75.3364 59.5754 77.5949 58.6111 77.5949 55.8251C77.5949 53.0391 75.3364 49.4863 72.5503 47.8897C69.7643 46.2932 67.5058 47.2574 67.5058 50.0435C67.5058 52.8295 69.7643 56.3823 72.5503 57.9789Z" stroke="#000033" stroke-width="1.3824"/>
<path fill-rule="evenodd" clip-rule="evenodd" d="M78.9607 75.9617V57.3214C78.9607 55.3889 77.8999 53.6123 76.1987 52.6955L58.3122 43.0571C57.0348 42.3688 55.4413 42.8463 54.7529 44.1237C54.5465 44.5067 54.4385 44.935 54.4385 45.3701V65.4881C54.4385 66.4509 54.9651 67.3366 55.811 67.7964L75.0785 78.2701C76.3534 78.9631 77.9487 78.4914 78.6417 77.2165C78.851 76.8314 78.9607 76.4 78.9607 75.9617Z" fill="white" stroke="#000033" stroke-width="0.54"/>
<path d="M64.6971 63.8008V61.5839C65.0665 61.7911 65.4272 61.9848 65.7703 62.169V64.377L67.125 65.1044V62.8612C69.3947 63.9567 70.9781 64.2351 71.1805 62.2061C71.3388 60.5757 70.5295 59.3758 69.2451 58.3783C70.0193 58.3981 70.5119 57.9588 70.3975 56.7274C70.248 55.046 68.8669 53.7678 67.125 52.683V50.4662L65.7703 49.7387V51.894C65.4184 51.7051 65.0577 51.5202 64.6971 51.3353V49.1625L63.3423 48.4351V50.6519C63.052 50.5048 62.7617 50.349 62.489 50.2025L60.624 49.1923V50.6351C60.9002 50.7784 61.0982 50.8826 61.2403 50.9583L61.3853 51.0362C61.5667 51.1345 61.5953 51.1544 61.5997 51.1584C62.1547 51.457 62.3306 51.8681 62.3834 52.178V54.7027C62.4186 54.7216 62.4714 54.75 62.5242 54.7871L62.3834 54.7115V58.2479C62.357 58.4097 62.2515 58.6257 61.8732 58.4226C61.8732 58.4226 61.8786 58.431 61.713 58.3438L61.513 58.2368C61.3709 58.16 61.1729 58.0515 60.8967 57.8983L60.624 59.3617L62.3834 60.3064C62.7089 60.4812 63.0256 60.66 63.3423 60.8301V63.0733L64.6971 63.8008ZM64.7234 55.6337V52.933C65.4888 53.3439 67.8816 54.3912 67.8816 55.9835C67.8816 57.5054 65.4888 56.0446 64.7234 55.6337ZM64.7234 59.9618V56.9884C65.6383 57.4797 68.5062 58.7644 68.5062 60.5062C68.5062 62.1865 65.6383 60.4531 64.7234 59.9618Z" fill="#000033"/>
<path fill-rule="evenodd" clip-rule="evenodd" d="M71.5164 81.2166V62.5763C71.5164 60.6437 70.4556 58.8672 68.7543 57.9504L50.8679 48.312C49.5905 47.6237 47.9969 48.1012 47.3086 49.3786C47.1022 49.7616 46.9941 50.1899 46.9941 50.625V70.7429C46.9941 71.7058 47.5208 72.5915 48.3667 73.0513L67.6342 83.525C68.909 84.218 70.5043 83.7463 71.1973 82.4714C71.4067 82.0863 71.5164 81.6549 71.5164 81.2166Z" fill="white" stroke="#000033" stroke-width="0.54"/>
<path fill-rule="evenodd" clip-rule="evenodd" d="M53.9866 70.0983C54.0293 70.1052 56.2811 69.2921 60.7421 67.6593C61.1472 67.511 61.1702 66.8901 60.7934 66.2724C60.6039 65.9618 60.3381 65.6961 60.0599 65.5392L54.4631 62.3822L52.9064 63.0564C52.7557 63.1216 52.5117 62.9837 52.3615 62.7482C52.2895 62.6354 52.249 62.5147 52.249 62.4128V60.5029C52.249 59.6943 52.9045 59.4085 53.7131 59.8646L55.5248 60.8865C55.7229 60.4802 56.2432 60.2572 57.0857 60.2175C57.9281 60.1779 58.8458 60.4438 59.8387 61.0151C61.1816 61.8006 62.3006 62.8598 63.1958 64.1926C64.091 65.5254 64.5289 66.8109 64.5095 68.0491V68.0621C64.5095 69.1524 64.0476 69.931 63.2383 70.2051L56.761 72.3984C56.2145 72.124 55.8109 71.8801 55.5502 71.6666C54.6188 70.9037 53.9526 70.0929 53.9866 70.0983Z" fill="#00E599" stroke="#000033" stroke-width="0.54"/>
<defs>
<filter id="filter0_dd_555_1176" x="0.43457" y="3.12451" width="117.565" height="132.35" filterUnits="userSpaceOnUse" color-interpolation-filters="sRGB">
<feFlood flood-opacity="0" result="BackgroundImageFix"/>
<feColorMatrix in="SourceAlpha" type="matrix" values="0 0 0 0 0 0 0 0 0 0 0 0 0 0 0 0 0 0 127 0" result="hardAlpha"/>
<feOffset dx="-6" dy="7"/>
<feGaussianBlur stdDeviation="5.5"/>
<feColorMatrix type="matrix" values="0 0 0 0 0.316369 0 0 0 0 0.366988 0 0 0 0 0.353496 0 0 0 0.25741 0"/>
<feBlend mode="normal" in2="BackgroundImageFix" result="effect1_dropShadow_555_1176"/>
<feColorMatrix in="SourceAlpha" type="matrix" values="0 0 0 0 0 0 0 0 0 0 0 0 0 0 0 0 0 0 127 0" result="hardAlpha"/>
<feOffset dx="-3" dy="3"/>
<feGaussianBlur stdDeviation="2.5"/>
<feColorMatrix type="matrix" values="0 0 0 0 0 0 0 0 0 0 0 0 0 0 0 0 0 0 0.144615 0"/>
<feBlend mode="normal" in2="effect1_dropShadow_555_1176" result="effect2_dropShadow_555_1176"/>
<feBlend mode="normal" in="SourceGraphic" in2="effect2_dropShadow_555_1176" result="shape"/>
</filter>
</defs>
</svg>
